eye-refresh-outline.svg

<svg fill="currentColor" viewBox="0 0 24 24"><path d="M12 9c1.7 0 3 1.3 3 3s-1.3 3-3 3-3-1.3-3-3 1.3-3 3-3m6 9.5 1.8-1.8c-.5-.4-1.1-.7-1.8-.7-1.4 0-2.5 1.1-2.5 2.5S16.6 21 18 21c.8 0 1.5-.4 2-1h1.7c-.6 1.5-2 2.5-3.7 2.5-2.2 0-4-1.8-4-4s1.8-4 4-4c1.1 0 2.1.4 2.8 1.2l1.2-1.2v4zm-6 0c0-.3 0-.7.1-1H12c-3.8 0-7.2-2.1-8.8-5.5 1.6-3.4 5-5.5 8.8-5.5s7.2 2.1 8.8 5.5c-.1.1-.1.2-.2.4q.9.3 1.8.9c.2-.4.4-.9.6-1.3-1.7-4.4-6-7.5-11-7.5S2.7 7.6 1 12c1.7 4.4 6 7.5 11 7.5h.1c-.1-.3-.1-.7-.1-1"/></svg>

<svg  viewBox="0 0 24 24" fill="currentColor"><path  d="M12 9C13.7 9 15 10.3 15 12S13.7 15 12 15 9 13.7 9 12 10.3 9 12 9M18 18.5L19.8 16.7C19.3 16.3 18.7 16 18 16C16.6 16 15.5 17.1 15.5 18.5S16.6 21 18 21C18.8 21 19.5 20.6 20 20H21.7C21.1 21.5 19.7 22.5 18 22.5C15.8 22.5 14 20.7 14 18.5S15.8 14.5 18 14.5C19.1 14.5 20.1 14.9 20.8 15.7L22 14.5V18.5H18M12 18.5C12 18.2 12 17.8 12.1 17.5H12C8.2 17.5 4.8 15.4 3.2 12C4.8 8.6 8.2 6.5 12 6.5S19.2 8.6 20.8 12C20.7 12.1 20.7 12.2 20.6 12.4C21.2 12.6 21.8 12.9 22.4 13.3C22.6 12.9 22.8 12.4 23 12C21.3 7.6 17 4.5 12 4.5S2.7 7.6 1 12C2.7 16.4 7 19.5 12 19.5H12.1C12 19.2 12 18.8 12 18.5Z"/></svg>
